icons/1_Primary/Drupal.svg

<svg width="1024" height="1024" viewBox="0 0 1024 1024" fill="none" xmlns="http://www.w3.org/2000/svg">
<g clip-path="url(#clip0_2_2067)">
<path d="M512 1024C794.77 1024 1024 794.77 1024 512C1024 229.23 794.77 0 512 0C229.23 0 0 229.23 0 512C0 794.77 229.23 1024 512 1024Z" fill="#728DBE"/>
<path d="M594.19 354.17C557.46 317.46 522.42 282.47 512 243C501.57 282.47 466.52 317.46 429.8 354.17C374.72 409.17 312.27 471.6 312.27 565.17C312.22 675.48 401.6 764.95 511.91 765C622.22 765.05 711.69 675.67 711.74 565.36V565.18C711.74 471.62 649.29 409.18 594.2 354.18M397.2 611.72C384.95 611.3 339.75 533.4 423.6 450.45L479.09 511.06C479.567 511.53 479.939 512.096 480.181 512.721C480.423 513.345 480.531 514.014 480.496 514.683C480.461 515.352 480.284 516.006 479.978 516.602C479.672 517.198 479.243 517.722 478.72 518.14C465.44 531.71 409 588.3 402 607.87C400.55 611.87 398.44 611.76 397.17 611.71M512 714.39C493.782 714.39 476.31 707.153 463.428 694.271C450.547 681.389 443.31 663.918 443.31 645.7C443.564 629.045 449.618 613.001 460.43 600.33C472.81 585.18 512 542.58 512 542.58C512 542.58 550.58 585.81 563.47 600.18C574.701 612.666 580.848 628.906 580.7 645.7C580.7 654.721 578.923 663.654 575.47 671.989C572.017 680.323 566.957 687.896 560.577 694.275C554.198 700.653 546.624 705.713 538.289 709.164C529.954 712.616 521.021 714.391 512 714.39ZM643.48 603C642 606.24 638.64 611.64 634.11 611.81C626.03 612.1 625.17 607.96 619.19 599.13C606.08 579.73 491.65 460.13 470.25 437.01C451.42 416.67 467.6 402.33 475.1 394.81C484.51 385.38 511.99 357.92 511.99 357.92C511.99 357.92 593.92 435.64 628 488.76C662.08 541.88 650.42 587.83 643.48 603Z" fill="white"/>
</g>
<defs>
<clipPath id="clip0_2_2067">
<rect width="1024" height="1024" fill="white"/>
</clipPath>
</defs>
</svg>

<svg width="1024" height="1024" fill="none" xmlns="http://www.w3.org/2000/svg"><g clip-path="url(#a)"><path d="M512 1024c282.77 0 512-229.23 512-512S794.77 0 512 0 0 229.23 0 512s229.23 512 512 512Z" fill="#728DBE"/><path d="M594.19 354.17C557.46 317.46 522.42 282.47 512 243c-10.43 39.47-45.48 74.46-82.2 111.17-55.08 55-117.53 117.43-117.53 211-.05 110.31 89.33 199.78 199.64 199.83 110.31.05 199.78-89.33 199.83-199.64v-.18c0-93.56-62.45-156-117.54-211m-197 257.54c-12.25-.42-57.45-78.32 26.4-161.27l55.49 60.61a4.743 4.743 0 0 1-.37 7.08C465.44 531.71 409 588.3 402 607.87c-1.45 4-3.56 3.89-4.83 3.84M512 714.39a68.691 68.691 0 0 1-68.69-68.69 71.577 71.577 0 0 1 17.12-45.37c12.38-15.15 51.57-57.75 51.57-57.75s38.58 43.23 51.47 57.6a67.181 67.181 0 0 1 17.23 45.52 68.687 68.687 0 0 1-42.411 63.464A68.683 68.683 0 0 1 512 714.39ZM643.48 603c-1.48 3.24-4.84 8.64-9.37 8.81-8.08.29-8.94-3.85-14.92-12.68-13.11-19.4-127.54-139-148.94-162.12-18.83-20.34-2.65-34.68 4.85-42.2 9.41-9.43 36.89-36.89 36.89-36.89S593.92 435.64 628 488.76c34.08 53.12 22.42 99.07 15.48 114.24Z" fill="#fff"/></g><defs><clipPath id="a"><path fill="#fff" d="M0 0h1024v1024H0z"/></clipPath></defs></svg>
